icons/git-branch-check-24.svg

<svg width="24" height="24" viewBox="0 0 24 24" fill="none" xmlns="http://www.w3.org/2000/svg">
<path fill-rule="evenodd" clip-rule="evenodd" d="M2.5 19.25C2.5 21.0449 3.95507 22.5 5.75 22.5C7.54493 22.5 9 21.0449 9 19.25C9 17.7115 7.93094 16.4226 6.49514 16.0858C6.49835 16.0577 6.5 16.029 6.5 16V14.25C6.5 14.2498 6.5 14.2502 6.5 14.25C6.50033 13.2838 7.28371 12.5 8.25 12.5H15.25C17.3211 12.5 19 10.8211 19 8.75V7.91303C20.4333 7.57445 21.5 6.28679 21.5 4.75C21.5 2.95507 20.0449 1.5 18.25 1.5C16.4551 1.5 15 2.95507 15 4.75C15 6.28679 16.0666 7.57445 17.5 7.91303V8.75C17.5 9.99264 16.4926 11 15.25 11H8.25C7.60568 11 7.00515 11.1875 6.5 11.5109V8C6.5 7.97098 6.49835 7.94234 6.49514 7.91418C7.93094 7.57736 9 6.28853 9 4.75C9 2.95507 7.54493 1.5 5.75 1.5C3.95507 1.5 2.5 2.95507 2.5 4.75C2.5 6.28853 3.56906 7.57736 5.00486 7.91418C5.00165 7.94234 5 7.97098 5 8L5 14.2492C5 14.2494 5 14.2489 5 14.2492V16C5 16.029 5.00165 16.0577 5.00486 16.0858C3.56906 16.4226 2.5 17.7115 2.5 19.25ZM5.75 21C4.7835 21 4 20.2165 4 19.25C4 18.2835 4.7835 17.5 5.75 17.5C6.7165 17.5 7.5 18.2835 7.5 19.25C7.5 20.2165 6.7165 21 5.75 21ZM5.75 6.5C4.7835 6.5 4 5.7165 4 4.75C4 3.7835 4.7835 3 5.75 3C6.7165 3 7.5 3.7835 7.5 4.75C7.5 5.7165 6.7165 6.5 5.75 6.5ZM16.5 4.75C16.5 5.7165 17.2835 6.5 18.25 6.5C19.2165 6.5 20 5.7165 20 4.75C20 3.7835 19.2165 3 18.25 3C17.2835 3 16.5 3.7835 16.5 4.75Z" fill="black"/>
<path d="M13.25 18.75L15.5732 21.0732C15.6709 21.1709 15.8291 21.1709 15.9268 21.0732L21.25 15.75" stroke="black" stroke-width="1.5" stroke-linecap="round"/>
</svg>

<svg xmlns="http://www.w3.org/2000/svg" width="24" height="24" fill="none"><path fill="#000" fill-rule="evenodd" d="M2.5 19.25a3.25 3.25 0 1 0 3.995-3.164A.757.757 0 0 0 6.5 16v-1.75c0-.966.784-1.75 1.75-1.75h7A3.75 3.75 0 0 0 19 8.75v-.837a3.251 3.251 0 0 0-.75-6.413 3.25 3.25 0 0 0-.75 6.413v.837A2.25 2.25 0 0 1 15.25 11h-7c-.644 0-1.245.188-1.75.51V8a.758.758 0 0 0-.005-.086A3.251 3.251 0 0 0 5.75 1.5a3.25 3.25 0 0 0-.745 6.414A.758.758 0 0 0 5 8v6.25s0-.001 0 0V16c0 .029.002.058.005.086A3.251 3.251 0 0 0 2.5 19.25ZM5.75 21a1.75 1.75 0 1 1 0-3.5 1.75 1.75 0 0 1 0 3.5Zm0-14.5a1.75 1.75 0 1 1 0-3.5 1.75 1.75 0 0 1 0 3.5ZM16.5 4.75a1.75 1.75 0 1 0 3.5 0 1.75 1.75 0 0 0-3.5 0Z" clip-rule="evenodd"/><path stroke="#000" stroke-linecap="round" stroke-width="1.5" d="m13.25 18.75 2.323 2.323a.25.25 0 0 0 .354 0l5.323-5.323"/></svg>
